X: 34341
T: Return To Camden Town, The
R: reel
M: 4/4
K: Cmajor
AG|:E2DE cAag|edcA EGAB|cBcd edeg|aged cABG|
E2DE cAag|edcA EGAB|cBcd edeg|1 aged cA~A2:|2 aged cAAB||
|:c2gc acgc|c2ec dcAB|cBcd edeg|agea gedB|
c2gc acga|gfge dcAG|~A3B cdeg|1 aged cAAB:|2 aged cA~A2||

